svgs/sharp-solid/lungs.svg

<svg xmlns="http://www.w3.org/2000/svg" viewBox="0 0 640 512"><!--! Font Awesome Pro 6.6.0 by @fontawesome - https://fontawesome.com License - https://fontawesome.com/license (Commercial License) Copyright 2024 Fonticons, Inc. --><path d="M352 32l0-32L288 0l0 32 0 32 0 126.4-32 20.4 0-82.8 0-32-32 0-56 0-16 0-9.6 12.8L168 128c-25.6-19.2-25.6-19.2-25.6-19.2s0 0 0 0c0 0 0 0 0 0l-.1 .1-.3 .4-1.1 1.5c-1 1.3-2.3 3.2-4.1 5.6c-3.5 4.8-8.4 11.8-14.3 20.6c-11.8 17.5-27.8 42.2-44.3 71.1C45.8 264.9 9.1 341.4 .2 412c-.2 1.3-.2 2.6-.2 4l0 7c0 49.1 39.8 89 89 89c7.3 0 14.5-.9 21.6-2.7L231.8 479 256 473l0-25 0-123.4L151.4 391.2l-17.2-27 27-17.2L320 245.9 478.8 347l26.5 16.9L488 391.2 384 325l0 123 0 25 24.2 6.1 121.2 30.3c7.1 1.8 14.3 2.7 21.6 2.7c49.1 0 89-39.8 89-89l0-7c0-1.3-.1-2.7-.2-4c-8.8-70.6-45.5-147.2-78-203.9c-16.5-28.9-32.4-53.6-44.3-71.1c-5.9-8.8-10.8-15.7-14.3-20.6c-1.7-2.4-3.1-4.3-4.1-5.6l-1.1-1.5-.3-.4-.1-.1c0 0 0 0 0 0c0 0 0 0 0 0L472 128l25.6-19.2L488 96l-16 0-56 0-32 0 0 32 0 82.8-32-20.4L352 64l0-32z"/></svg>

<svg xmlns="http://www.w3.org/2000/svg" viewBox="0 0 640 512"><!--! Font Awesome Pro 6.4.2 by @fontawesome - https://fontawesome.com License - https://fontawesome.com/license (Commercial License) Copyright 2023 Fonticons, Inc. --><path d="M352 32V0H288V32 64 190.4l-32 20.4V128 96H224 168 152l-9.6 12.8L168 128c-25.6-19.2-25.6-19.2-25.6-19.2l0 0 0 0-.1 .1-.3 .4-1.1 1.5c-1 1.3-2.3 3.2-4.1 5.6c-3.5 4.8-8.4 11.8-14.3 20.6c-11.8 17.5-27.8 42.2-44.3 71.1C45.8 264.9 9.1 341.4 .2 412c-.2 1.3-.2 2.6-.2 4v7c0 49.1 39.8 89 89 89c7.3 0 14.5-.9 21.6-2.7L231.8 479 256 473V448 324.6L151.4 391.2l-17.2-27 27-17.2L320 245.9 478.8 347l26.5 16.9L488 391.2 384 325V448v25l24.2 6.1 121.2 30.3c7.1 1.8 14.3 2.7 21.6 2.7c49.1 0 89-39.8 89-89v-7c0-1.3-.1-2.7-.2-4c-8.8-70.6-45.5-147.2-78-203.9c-16.5-28.9-32.4-53.6-44.3-71.1c-5.9-8.8-10.8-15.7-14.3-20.6c-1.7-2.4-3.1-4.3-4.1-5.6l-1.1-1.5-.3-.4-.1-.1 0 0 0 0s0 0-25.6 19.2l25.6-19.2L488 96H472 416 384v32 82.8l-32-20.4V64 32z"/></svg>
